X: 1
T:Giga Emiliana
C:R. Tesi: Il ballo delle lepre 8d
M:6/8
L:1/8
K:G
dc|BcB ABA|GGB GFG|ABc cBA|BdB GGG|
ABc cBA|ded ddd|ABA GFE|1 ~E2D D2:|2 ~E2D D||
|:de|dcB BAG|e2e ecd|cBA AGF|d2d d3|
Bdd  cee|Bdd  cee|Bdd  Add|G3  z:|
